packages/kaspersky-hexa-ui-icons/src/iconsSVGs/24/Link.svg

<svg width="24" height="24" viewBox="0 0 24 24" fill="none" xmlns="http://www.w3.org/2000/svg">
<path d="M19.5484 4.40037C17.4417 2.29363 14.0259 2.29362 11.9192 4.40037L9.59047 6.7291C9.19994 7.11963 9.19994 7.75279 9.59047 8.14332C9.98099 8.53384 10.6142 8.53384 11.0047 8.14332L13.3334 5.81458C14.6591 4.48889 16.8085 4.48889 18.1342 5.81459C19.4599 7.14029 19.4599 9.28967 18.1342 10.6154L15.831 12.9186C15.4405 13.3091 15.4405 13.9422 15.831 14.3328C16.2215 14.7233 16.8547 14.7233 17.2452 14.3328L19.5484 12.0296C21.6551 9.92283 21.6551 6.50712 19.5484 4.40037Z" fill="black"/>
<path d="M8.08018 11.0678C8.4707 10.6773 8.4707 10.0441 8.08018 9.6536C7.68966 9.26308 7.05649 9.26308 6.66597 9.6536L4.3491 11.9705C2.24236 14.0772 2.24236 17.4929 4.3491 19.5997C6.45585 21.7064 9.87156 21.7064 11.9783 19.5997L14.2824 17.2956C14.6729 16.9051 14.6729 16.2719 14.2824 15.8814C13.8919 15.4908 13.2587 15.4908 12.8682 15.8814L10.5641 18.1855C9.2384 19.5112 7.08901 19.5112 5.76332 18.1855C4.43762 16.8598 4.43762 14.7104 5.76332 13.3847L8.08018 11.0678Z" fill="black"/>
<path d="M14.9801 10.3829C15.3706 9.99235 15.3706 9.35918 14.9801 8.96866C14.5896 8.57813 13.9564 8.57814 13.5659 8.96866L8.91732 13.6172C8.52679 14.0077 8.52679 14.6409 8.91732 15.0314C9.30784 15.422 9.94101 15.422 10.3315 15.0314L14.9801 10.3829Z" fill="black"/>
</svg>

<svg xmlns="http://www.w3.org/2000/svg" width="24" height="24" fill="none" viewBox="0 0 24 24"><path fill="#000" fill-rule="evenodd" d="M19.5484 4.4004c-2.1067-2.1068-5.5225-2.1068-7.6292 0L9.5905 6.729c-.3906.3905-.3906 1.0237 0 1.4142s1.0237.3905 1.4142 0l2.3287-2.3287c1.3257-1.3257 3.4751-1.3257 4.8008 0s1.3257 3.475 0 4.8008l-2.3032 2.3032c-.3905.3905-.3905 1.0236 0 1.4142s1.0237.3905 1.4142 0l2.3032-2.3032c2.1067-2.1068 2.1067-5.5225 0-7.6292m-4.5683 5.9825c.3905-.3905.3905-1.0237 0-1.4142-.3905-.3906-1.0237-.3906-1.4142 0l-4.6486 4.6485c-.3905.3906-.3905 1.0237 0 1.4142.3905.3906 1.0237.3906 1.4142 0zm-6.9-.7293c.3906.3905.3906 1.0237 0 1.4142l-2.3168 2.3169c-1.3257 1.3257-1.3257 3.4751 0 4.8008s3.4751 1.3257 4.8008 0l2.3041-2.3041c.3905-.3905 1.0237-.3905 1.4142 0s.3905 1.0237 0 1.4142l-2.3041 2.3041c-2.1067 2.1067-5.5225 2.1067-7.6292 0s-2.1067-5.5225 0-7.6292L6.666 9.6536c.3905-.3905 1.0237-.3905 1.4142 0"/></svg>
